modules/framework7-icons/icons/social_rss.svg

<?xml version="1.0" encoding="UTF-8"?>
<svg width="50px" height="50px" viewBox="0 0 50 50" version="1.1" xmlns="http://www.w3.org/2000/svg" xmlns:xlink="http://www.w3.org/1999/xlink">
    <!-- Generator: Sketch 40.1 (33804) - http://www.bohemiancoding.com/sketch -->
    <title>social_rss</title>
    <desc>Created with Sketch.</desc>
    <defs></defs>
    <g id="Page-1" stroke="none" stroke-width="1" fill="none" fill-rule="evenodd">
        <g id="social_rss" fill="#000000">
            <path d="M14,42 C14,38.6862915 11.3137085,36 8,36 C4.6862915,36 2,38.6862915 2,42 C2,45.3137085 4.6862915,48 8,48 C11.3137085,48 14,45.3137085 14,42 Z M0,42 C0,37.581722 3.581722,34 8,34 C12.418278,34 16,37.581722 16,42 C16,46.418278 12.418278,50 8,50 C3.581722,50 0,46.418278 0,42 Z" id="Oval-68"></path>
            <path d="M1.99464441,6.04440609 C40,9 43.9389648,44 43.9389648,47.9999962 L47.9597256,48.0155983 C46.946028,23.0874179 26.9207758,3.05915062 1.99383136,2.04065873 L1.99464441,6.04440609 Z M0,0 C27.6142375,0 50,22.3857625 50,50 L42,50 C42,26.8040405 23.1959595,8 0,8 L0,0 Z" id="Oval-68"></path>
            <path d="M1.9916928,21.067322 C23,23 28.9408569,41 28.9408569,48 L32.9400596,47.9944827 C32.9400596,37 22,18 1.97708922,17.0582484 L1.9916928,21.067322 Z M0,15 C19.3299662,15 35,30.6700338 35,50 L27,50 C27,35.0883118 14.9116882,23 0,23 L0,15 Z" id="Oval-68"></path>
        </g>
    </g>
</svg>

<svg width="50" height="50" xmlns="http://www.w3.org/2000/svg"><g fill-rule="evenodd"><path d="M14 42a6 6 0 1 0-12 0 6 6 0 0 0 12 0zM0 42a8 8 0 1 1 16 0 8 8 0 0 1-16 0zM1.995 6.044C40 9 43.939 44 43.939 48l4.02.016C46.947 23.087 26.922 3.059 1.995 2.04v4.003zM0 0c27.614 0 50 22.386 50 50h-8C42 26.804 23.196 8 0 8V0z"/><path d="M1.992 21.067C23 23 28.94 41 28.94 48l4-.006C32.94 37 22 18 1.976 17.058l.015 4.01zM0 15c19.33 0 35 15.67 35 35h-8c0-14.912-12.088-27-27-27v-8z"/></g></svg>
